X:1
T:Marie-Jean.
C:Jean Blanchard 
R:
A:France
%%textfont Helvetica-Narrow 10pt
%%begintext align
S:kopierte handschriftliche noten-blaetter von Maxou Heintzen
N:notitz auf dem noten-blatt: "2 bis"
Q:3/4=69
N:metronom-angabe laut quelle
%%endtext
F:http://simonwascher.info/
Z:abc transcription Simon Wascher
M:3/4
L:1/8
K:C
V:1
g2 ^f2 d2 | =f2 e2 c2 | _e2 d2 c2 | B2 G2 Bd |\
g2 ^f2 d2 | =f2 e2 c2 | _e2 d2 B2 | c6 :|
V:2
G2 A4 | A2 G4 | F2 G4 | D6 |\
G2 A4 | A2 G4 | F2 G4 | C6 :|
V:1
|:\
_e2 d2 c2 | B2 GABA | Bc Bc d_e | d2 c4 |\
_e2 d2 c2 | B2 GABA | Bc Bc dB | c6 :|
V:2
|:\
_E6 | [F6D6] | F6 | [G6E6] |\
_E6 | [F6D6] | [G6D6] | C6 :|
W:
W:
